packages/ui-icons/src/Service-logos/24/VK-music.svg

<svg width="32" height="32" viewBox="0 0 32 32" fill="none" xmlns="http://www.w3.org/2000/svg">
<circle cx="16" cy="16" r="12" fill="#0077FF"/>
<path fill-rule="evenodd" clip-rule="evenodd" d="M16.0576 27.9999C22.6585 27.9688 28 22.6082 28 16C28 14.7111 27.7968 13.4697 27.4207 12.3061C25.9121 11.0845 23.081 8.79987 19.84 8.79987C17.6558 8.79987 15.9103 10.0002 13.9503 11.3479C11.4483 13.0683 8.59692 15.029 4.03785 15.0398C4.01278 15.3566 4 15.6768 4 16C4 22.6082 9.34147 27.9688 15.9424 27.9999H16.0576Z" fill="#F45FFF"/>
<path fill-rule="evenodd" clip-rule="evenodd" d="M18.76 13.4801C18.76 12.8836 19.2435 12.4001 19.84 12.4001C20.4365 12.4001 20.92 12.8836 20.92 13.4801V23.32C20.92 23.9165 20.4365 24.4 19.84 24.4C19.2435 24.4 18.76 23.9165 18.76 23.32V13.4801ZM22.6 16.24C22.6 15.6436 23.0835 15.16 23.68 15.16C24.2765 15.16 24.76 15.6436 24.76 16.24V20.56C24.76 21.1565 24.2765 21.64 23.68 21.64C23.0835 21.64 22.6 21.1565 22.6 20.56V16.24ZM16 15.16C16.5965 15.16 17.08 15.6436 17.08 16.24V20.56C17.08 21.1565 16.5965 21.64 16 21.64C15.4035 21.64 14.92 21.1565 14.92 20.56V16.24C14.92 15.6436 15.4035 15.16 16 15.16ZM11.08 17.8C11.08 17.2035 11.5636 16.72 12.16 16.72C12.7565 16.72 13.24 17.2035 13.24 17.8V19C13.24 19.5965 12.7565 20.08 12.16 20.08C11.5636 20.08 11.08 19.5965 11.08 19V17.8ZM8.31999 16.72C7.72353 16.72 7.23999 17.2035 7.23999 17.8V19C7.23999 19.5965 7.72353 20.08 8.31999 20.08C8.91645 20.08 9.39999 19.5965 9.39999 19V17.8C9.39999 17.2035 8.91645 16.72 8.31999 16.72Z" fill="white"/>
</svg>

<svg width="32" height="32" fill="none" xmlns="http://www.w3.org/2000/svg"><circle cx="16" cy="16" r="12" fill="#07F"/><path fill-rule="evenodd" clip-rule="evenodd" d="M16.058 28C22.658 27.969 28 22.608 28 16c0-1.289-.203-2.53-.58-3.694-1.508-1.221-4.339-3.506-7.58-3.506-2.184 0-3.93 1.2-5.89 2.548-2.502 1.72-5.353 3.681-9.912 3.692A12.17 12.17 0 0 0 4 16c0 6.608 5.341 11.969 11.942 12h.116Z" fill="#F45FFF"/><path fill-rule="evenodd" clip-rule="evenodd" d="M18.76 13.48a1.08 1.08 0 1 1 2.16 0v9.84a1.08 1.08 0 1 1-2.16 0v-9.84Zm3.84 2.76a1.08 1.08 0 0 1 2.16 0v4.32a1.08 1.08 0 1 1-2.16 0v-4.32ZM16 15.16c.596 0 1.08.484 1.08 1.08v4.32a1.08 1.08 0 1 1-2.16 0v-4.32c0-.596.483-1.08 1.08-1.08Zm-4.92 2.64a1.08 1.08 0 0 1 2.16 0V19a1.08 1.08 0 1 1-2.16 0v-1.2Zm-2.76-1.08a1.08 1.08 0 0 0-1.08 1.08V19a1.08 1.08 0 1 0 2.16 0v-1.2a1.08 1.08 0 0 0-1.08-1.08Z" fill="#fff"/></svg>
